bed-empty.svg

<svg fill="currentColor" viewBox="0 0 24 24"><path d="M19 7H5v7H3V5H1v15h2v-3h18v3h2v-9a4 4 0 0 0-4-4"/></svg>

<svg  viewBox="0 0 24 24" fill="currentColor"><path  d="M19,7H5V14H3V5H1V20H3V17H21V20H23V11A4,4 0 0,0 19,7"/></svg>
